X: 3
T: The Ale Is Dear
R: reel
M: 4/4
L: 1/8
K: Bdor
f2 ef B2 fe | faef ceAe | f2 ef B2 fe | faec B4 :|
BABc d2 cB | A2 AB ABcA | BABc d2 cB | efec B4 |
BABc d2 cB |A2 AB ABcA | d2 fd c2 ec | efec B4 |


Tune 866	Setting 14036

